chevron-down-circle-outline.svg

<svg fill="currentColor" viewBox="0 0 24 24"><path d="M22 12a10 10 0 0 1-10 10A10 10 0 0 1 2 12 10 10 0 0 1 12 2a10 10 0 0 1 10 10m-2 0a8 8 0 0 0-8-8 8 8 0 0 0-8 8 8 8 0 0 0 8 8 8 8 0 0 0 8-8M6 10l6 6 6-6-1.4-1.4-4.6 4.6-4.6-4.6z"/></svg>

<svg  viewBox="0 0 24 24" fill="currentColor"><path  d="M22,12A10,10 0 0,1 12,22A10,10 0 0,1 2,12A10,10 0 0,1 12,2A10,10 0 0,1 22,12M20,12A8,8 0 0,0 12,4A8,8 0 0,0 4,12A8,8 0 0,0 12,20A8,8 0 0,0 20,12M6,10L12,16L18,10L16.6,8.6L12,13.2L7.4,8.6L6,10Z"/></svg>
